images/identification-document.svg

<svg fill="none" height="73" viewBox="0 0 67 73" width="67" xmlns="http://www.w3.org/2000/svg" xmlns:xlink="http://www.w3.org/1999/xlink"><linearGradient id="a" gradientUnits="userSpaceOnUse" x1="34.6044" x2="34.6044" y1="1.62646" y2="72.0017"><stop offset="0" stop-color="#6266ea"/><stop offset="1" stop-color="#1a205a"/></linearGradient><path d="m67 33.5629c0 14.0217-8.5848 26.0364-20.7741 31.0596-3.9237 1.6155-8.2216 2.5088-12.7231 2.5088-3.7421 0-7.3357-.6121-10.6925-1.7479-.6604-.2206-1.3098-.4632-1.9481-.7279-1.6179-.6616-3.1753-1.4446-4.6556-2.3434-3.5715-2.1614-6.70828-4.9735-9.2452-8.2707-.33569-.4356-.66037-.8768-.97405-1.3289-.17059-.2426-.33569-.4852-.49528-.7333-3.47244-5.2878-5.49207-11.6177-5.49207-18.4163 0-18.5376 14.9959-33.5629 33.4972-33.5629 9.658 0 18.3638 4.0968 24.4777 10.6528.3412.3694.6769.7444 1.0071 1.1248.2532.2978.5063.601.7484.9098.6824.8602 1.3263 1.7589 1.9206 2.6852.5173.8051 1.0016 1.6321 1.4528 2.4813.0385.0717.0771.1489.1156.2205 2.4158 4.6317 3.7806 9.9029 3.7806 15.4885z" fill="#d2d3f8"/><path d="m63.0156 19.359-16.7899 45.2633-1.9316 5.2106c-.6383 1.7203-2.5534 2.6026-4.2759 1.9574l-17.2136-6.4126-1.9481-.7278c-1.6179-.6617-3.1753-1.4446-4.6556-2.3434-3.5715-2.1614-6.70825-4.9735-9.24517-8.2708-.33568-.4356-.66036-.8767-.97404-1.3288l18.95811-51.08044 36.1222 13.45384c.2146.0772.4128.1764.5943.2922.9466.59 1.5299 1.6101 1.5684 2.7018.0165.4246-.0495.8602-.2091 1.2847z" fill="url(#a)"/><g fill="#e9d59a"><path d="m23.2724 42.87c-.1101-.204-.3192-.3584-.6218-.4687l-1.0016-.3749-.9906 2.6687.5449.204.3081-.8271.4458.1654c.3357.1268.6108.1379.8199.0386.2091-.0992.3742-.3088.4898-.6341.1101-.3088.1156-.5679.0055-.7719zm-.5723.5734c-.0495.1268-.0991.2206-.1541.2702-.055.0551-.1266.0827-.2146.0827-.0881 0-.2311-.0386-.4293-.1103l-.2201-.0827.3357-.8987.2697.0992c.2146.0827.3522.1709.4127.2647.055.0992.055.2205 0 .3749z"/><path d="m24.4831 43.085-1.871 2.3378.5393.1985.3742-.4742 1.0236.3805-.0221.6065.5559.2095.1045-2.9995zm.0881 1.9077-.7209-.2701.7704-.9705z"/><path d="m27.6197 46.41c-.0991.2701-.2642.4411-.4898.5183s-.5118.0551-.853-.0772c-.2366-.0883-.4237-.204-.5723-.3474-.1431-.1434-.2366-.3198-.2861-.5404l.5338-.1654c.0275.1103.0605.1985.1045.2647.0385.0662.0936.1213.1596.1764.066.0552.1486.0993.2476.1324.1486.0551.2697.0716.3743.0551.099-.0221.1705-.0827.2091-.1875.022-.0606.0275-.1158.011-.1654s-.0441-.0992-.0936-.1544c-.0495-.0496-.1321-.1213-.2641-.2095-.1266-.0882-.2422-.1764-.3522-.2592-.1101-.0827-.1981-.1709-.2642-.2646-.066-.0938-.11-.1985-.1265-.3088s0-.2371.0495-.3749c.0935-.2537.2531-.4191.4733-.4963.2256-.0772.4952-.0606.8144.0607.4623.1709.7264.4521.8035.8381l-.5338.1709c-.0331-.1378-.0826-.2536-.1541-.3363-.0716-.0827-.1706-.1489-.2972-.193s-.2366-.0607-.3302-.0441c-.0935.0165-.1596.0716-.1981.1709-.033.0882-.0165.1654.0495.2426.0661.0772.1926.1764.3797.2978.1046.0716.2037.1433.2972.2205.0991.0772.1761.1599.2422.2536.066.0938.1045.1985.121.3143.022.1213.0055.2537-.055.4081z"/><path d="m29.9861 47.2923c-.099.2702-.2641.4411-.4897.5183-.2257.0772-.5118.0551-.853-.0772-.2366-.0882-.4237-.204-.5723-.3474-.1431-.1433-.2367-.3198-.2862-.5403l.5338-.1655c.0275.1103.0605.1986.1046.2647.0385.0662.0935.1213.1596.1765.066.0551.1485.0992.2476.1323.1486.0551.2696.0717.3742.0551.0991-.022.1706-.0827.2091-.1874.022-.0607.0275-.1158.011-.1655-.0165-.0496-.044-.0992-.0935-.1543-.0496-.0497-.1321-.1214-.2642-.2096-.1265-.0882-.2421-.1764-.3522-.2591-.11-.0827-.1981-.171-.2641-.2647-.0661-.0937-.1101-.1985-.1266-.3088-.0165-.1102 0-.2371.0495-.3749.0936-.2536.2532-.4191.4733-.4963.2256-.0772.4953-.0606.8145.0607.4622.1709.7264.4521.8034.8381l-.5338.1709c-.033-.1378-.0825-.2536-.1541-.3363-.0715-.0827-.1706-.1489-.2971-.193-.1266-.0441-.2367-.0607-.3302-.0441-.0936.0165-.1596.0717-.1981.1709-.0331.0882-.0165.1654.0495.2426s.1926.1765.3797.2978c.1046.0717.2036.1433.2972.2205.099.0772.1761.1599.2421.2537.066.0937.1046.1985.1211.3143.022.1158.0055.2536-.0551.408z"/><path d="m32.7597 46.4042c-.11-.2041-.3192-.3584-.6218-.4687l-1.0016-.375-.9905 2.6687.5448.204.3081-.827.4403.1654c.3412.1268.6108.1378.8199.0386.2092-.0993.3742-.3088.4898-.6341.1211-.3088.1266-.5679.011-.7719zm-.5668.5734c-.0495.1268-.0991.2206-.1541.2702-.055.0551-.1266.0827-.2146.0827-.0881 0-.2311-.0386-.4292-.1103l-.2202-.0827.3357-.8988.2697.0993c.2146.0827.3522.1709.4127.2702.055.0937.055.2205 0 .3694z"/><path d="m35.3074 47.4631c-.0935-.3088-.3411-.5403-.7374-.6892-.3962-.1489-.7264-.1324-1.0015.0386-.2752.1709-.4953.4797-.6604.9263-.1651.4411-.1981.8161-.1046 1.1303.0936.3143.3412.5404.732.6893.3742.1378.6988.1323.9795-.0276s.5063-.4687.6824-.9318c.1706-.4467.2036-.8216.11-1.1359zm-.6658.9208c-.1156.3143-.2477.5294-.3907.6396-.1431.1103-.3192.1269-.5338.0497-.2092-.0772-.3357-.2096-.3688-.386-.0385-.1765.0055-.4246.1211-.7389s.2477-.5293.3907-.6396c.1431-.1103.3192-.1268.5338-.0496s.3357.2095.3742.386c.0331.1764-.011.4245-.1265.7388z"/><path d="m37.8006 48.2513c-.1155-.182-.3411-.3364-.6823-.4632l-.9686-.3584-.9905 2.6687.5448.204.3742-1.009.2751.1047.3027 1.2627.6219.2316-.3137-1.3399c.1871.0276.3577-.0055.5008-.1047.143-.0993.2586-.2647.3466-.4908.1046-.2867.1046-.5183-.011-.7057zm-.5448.5183c-.0385.1047-.0825.1709-.1265.2095-.0496.0386-.1101.0551-.1816.0551-.0716 0-.1706-.022-.2917-.0717l-.3962-.1488.2641-.7113.4238.1544c.1596.0606.2641.1213.3136.1985.0441.0716.0441.1764-.0055.3143z"/><path d="m39.5397 49.255-.8035 2.1725-.5448-.1985.809-2.1725-.82-.3088.1816-.4962 2.1847.816-.1871.4963z"/><path d="m28.9957 53.2085c-.1541.4246-.6273.6397-1.0511.4797-.4237-.1599-.6383-.6285-.4787-1.0531.1595-.4246.6273-.6396 1.051-.4797.4238.1599.6384.6341.4788 1.0531z" opacity=".9"/><path d="m27.7629 54.2008c-.5558-.204-.886-.7388-.8805-1.2957l-1.9536-.7279-.6053 1.6322 6.301 2.3433.6054-1.6321-1.9536-.7278c-.3632.4301-.9631.612-1.5134.408z"/><path d="m25.8478 49.6963-.6054 1.6321 1.9536.7278c.3577-.4301.9576-.612 1.5079-.408.5558.204.886.7333.8805 1.2958l1.9536.7278.6053-1.6321z"/><path d="m45.3343 28.2475.0055-.0055c-.011-.0276-.1871-.5459-.1981-.5735l-.0055.0055c-2.0362-5.387-8.1941-7.6752-13.2405-4.9293l-.0055-.0056c-.0275.0166-.4952.2923-.5227.3088l.0055.0055c-3.9072 2.4427-5.6957 7.3169-4.309 11.706h-.0055c.011.0275.1871.5403.1981.5734l.0056-.0055c1.9315 5.3264 8.3096 7.6367 13.1798 4.9073l.0055.0055c.0276-.0165.5559-.3253.5228-.3032v-.0055c3.9127-2.4206 5.7287-7.2728 4.364-11.6839zm-.6604 6.0708-3.3844-1.2572c.4293-1.2792.5668-2.597.5338-3.8487.9961-.0772 2.0527-.3198 2.9552-.7058.5833 1.9299.5228 3.948-.1046 5.8117zm-.088-6.3961c-.9136.3915-1.8656.6065-2.7901.6782-.1651-2.2387-.842-4.2236-1.3373-5.4202 1.9646 1.0422 3.3844 2.7625 4.1274 4.742zm-8.783 3.7329-1.007 2.7128c-1.1392-.3915-2.3553-.601-3.61-.5845-.0441-1.202.077-2.4592.4842-3.6722zm-3.9292-2.1063c.4788-1.1579 1.1832-2.1725 1.9811-3.0437.886.7885 1.9371 1.4557 3.1368 1.9409l-.9851 2.6466zm4.4906 2.3213 4.1383 1.5384c-.4843 1.1799-1.2107 2.211-2.0307 3.0932-.8805-.7829-1.9205-1.4391-3.1147-1.9243zm.2146-.5679.9795-2.6467c1.2217.4191 2.4599.601 3.6376.5845.0385 1.1855-.0881 2.4151-.4843 3.6061zm4.584-2.6687c-1.1501.0165-2.2947-.171-3.3954-.5459l1.9041-5.1389c.4623 1.0311 1.2987 3.2145 1.4913 5.6848zm-3.9567-.761c-1.1391-.4631-2.1077-1.0807-2.9221-1.8085 1.7555-1.7424 3.8081-2.8452 4.8317-3.3304zm1.1667-5.4642c-1.1557.579-2.9662 1.6431-4.5456 3.2256-.6658-.6672-1.2437-1.4612-1.6729-2.3434 1.8931-1.0366 4.0833-1.3784 6.2185-.8822zm-6.7468 1.1965c.4017.8216 1.0236 1.7038 1.7775 2.4702-.8475.9264-1.5959 2.0071-2.1077 3.2642l-3.3844-1.2571c.7704-1.8858 2.0637-3.4296 3.7146-4.4773zm-3.9237 5.0342 3.3844 1.2626c-.4347 1.3013-.5723 2.6412-.5283 3.9149-.9795.0772-2.0306.3088-2.9386.6892-.6109-1.9795-.5338-4.0196.0825-5.8667zm.1101 6.4402c.875-.3639 1.794-.59 2.779-.6617.1706 2.2111.842 4.174 1.3318 5.3595-1.9591-1.0421-3.3679-2.7404-4.1108-4.6978zm3.4064-.6893c1.1336-.011 2.2452.1655 3.3624.5459l-1.8821 5.0728c-.4513-1.0256-1.2767-3.176-1.4803-5.6187zm3.9292.7554c1.1226.4577 2.0856 1.0697 2.9001 1.7865-1.7445 1.7148-3.7751 2.8066-4.7822 3.2863zm-1.1392 5.4091c1.1392-.5734 2.9277-1.621 4.5016-3.1815.6713.6782 1.2381 1.4447 1.6729 2.3214-1.9041 1.02-4.0723 1.3398-6.1745.8601zm6.6973-1.1744c-.4127-.8271-1.0181-1.6873-1.7775-2.4482.864-.9373 1.6289-2.0346 2.1517-3.3083l3.3844 1.2627c-.7649 1.8747-2.0692 3.4351-3.7586 4.4938z"/></g></svg>

<svg width="67" height="73" viewBox="0 0 67 73" fill="none" xmlns="http://www.w3.org/2000/svg">
<path d="M67 33.5629C67 47.5846 58.4152 59.5993 46.2259 64.6225C42.3022 66.238 38.0043 67.1313 33.5028 67.1313C29.7607 67.1313 26.1671 66.5192 22.8103 65.3834C22.1499 65.1628 21.5005 64.9202 20.8622 64.6555C19.2443 63.9939 17.6869 63.2109 16.2066 62.3121C12.6351 60.1507 9.49832 57.3386 6.9614 54.0414C6.62571 53.6058 6.30103 53.1646 5.98735 52.7125C5.81676 52.4699 5.65166 52.2273 5.49207 51.9792C2.01963 46.6914 0 40.3615 0 33.5629C0 15.0253 14.9959 0 33.4972 0C43.1552 0 51.861 4.0968 57.9749 10.6528C58.3161 11.0222 58.6518 11.3972 58.982 11.7776C59.2352 12.0754 59.4883 12.3786 59.7304 12.6874C60.4128 13.5476 61.0567 14.4463 61.651 15.3726C62.1683 16.1777 62.6526 17.0047 63.1038 17.8539C63.1423 17.9256 63.1809 18.0028 63.2194 18.0744C65.6352 22.7061 67 27.9773 67 33.5629Z" fill="#D2D3F8"/>
<path d="M63.0156 19.359L46.2257 64.6223L44.2941 69.8329C43.6558 71.5532 41.7407 72.4355 40.0182 71.7903L22.8046 65.3777L20.8565 64.6499C19.2386 63.9882 17.6812 63.2053 16.2009 62.3065C12.6294 60.1451 9.49265 57.333 6.95573 54.0357C6.62005 53.6001 6.29537 53.159 5.98169 52.7069L24.9398 1.62646L61.062 15.0803C61.2766 15.1575 61.4748 15.2567 61.6563 15.3725C62.6029 15.9625 63.1862 16.9826 63.2247 18.0743C63.2412 18.4989 63.1752 18.9345 63.0156 19.359Z" fill="url(#paint0_linear)"/>
<path d="M23.2724 42.87C23.1623 42.666 22.9532 42.5116 22.6506 42.4013L21.649 42.0264L20.6584 44.6951L21.2033 44.8991L21.5114 44.072L21.9572 44.2374C22.2929 44.3642 22.568 44.3753 22.7771 44.276C22.9862 44.1768 23.1513 43.9672 23.2669 43.6419C23.377 43.3331 23.3825 43.074 23.2724 42.87ZM22.7001 43.4434C22.6506 43.5702 22.601 43.664 22.546 43.7136C22.491 43.7687 22.4194 43.7963 22.3314 43.7963C22.2433 43.7963 22.1003 43.7577 21.9021 43.686L21.682 43.6033L22.0177 42.7046L22.2874 42.8038C22.502 42.8865 22.6396 42.9747 22.7001 43.0685C22.7551 43.1677 22.7551 43.289 22.7001 43.4434Z" fill="#E9D59A"/>
<path d="M24.4831 43.085L22.6121 45.4228L23.1514 45.6213L23.5256 45.1471L24.5492 45.5276L24.5271 46.1341L25.083 46.3436L25.1875 43.3441L24.4831 43.085ZM24.5712 44.9927L23.8503 44.7226L24.6207 43.7521L24.5712 44.9927Z" fill="#E9D59A"/>
<path d="M27.6197 46.41C27.5206 46.6801 27.3555 46.8511 27.1299 46.9283C26.9043 47.0055 26.6181 46.9834 26.2769 46.8511C26.0403 46.7628 25.8532 46.6471 25.7046 46.5037C25.5615 46.3603 25.468 46.1839 25.4185 45.9633L25.9523 45.7979C25.9798 45.9082 26.0128 45.9964 26.0568 46.0626C26.0953 46.1288 26.1504 46.1839 26.2164 46.239C26.2824 46.2942 26.365 46.3383 26.464 46.3714C26.6126 46.4265 26.7337 46.443 26.8383 46.4265C26.9373 46.4044 27.0088 46.3438 27.0474 46.239C27.0694 46.1784 27.0749 46.1232 27.0584 46.0736C27.0419 46.024 27.0143 45.9744 26.9648 45.9192C26.9153 45.8696 26.8327 45.7979 26.7007 45.7097C26.5741 45.6215 26.4585 45.5333 26.3485 45.4505C26.2384 45.3678 26.1504 45.2796 26.0843 45.1859C26.0183 45.0921 25.9743 44.9874 25.9578 44.8771C25.9413 44.7668 25.9578 44.64 26.0073 44.5022C26.1008 44.2485 26.2604 44.0831 26.4806 44.0059C26.7062 43.9287 26.9758 43.9453 27.295 44.0666C27.7573 44.2375 28.0214 44.5187 28.0985 44.9047L27.5647 45.0756C27.5316 44.9378 27.4821 44.822 27.4106 44.7393C27.339 44.6566 27.24 44.5904 27.1134 44.5463C26.9868 44.5022 26.8768 44.4856 26.7832 44.5022C26.6897 44.5187 26.6236 44.5738 26.5851 44.6731C26.5521 44.7613 26.5686 44.8385 26.6346 44.9157C26.7007 44.9929 26.8272 45.0921 27.0143 45.2135C27.1189 45.2851 27.218 45.3568 27.3115 45.434C27.4106 45.5112 27.4876 45.5939 27.5537 45.6876C27.6197 45.7814 27.6582 45.8861 27.6747 46.0019C27.6967 46.1232 27.6802 46.2556 27.6197 46.41Z" fill="#E9D59A"/>
<path d="M29.9861 47.2923C29.8871 47.5625 29.722 47.7334 29.4964 47.8106C29.2707 47.8878 28.9846 47.8657 28.6434 47.7334C28.4068 47.6452 28.2197 47.5294 28.0711 47.386C27.928 47.2427 27.8344 47.0662 27.7849 46.8457L28.3187 46.6802C28.3462 46.7905 28.3792 46.8788 28.4233 46.9449C28.4618 47.0111 28.5168 47.0662 28.5829 47.1214C28.6489 47.1765 28.7314 47.2206 28.8305 47.2537C28.9791 47.3088 29.1001 47.3254 29.2047 47.3088C29.3038 47.2868 29.3753 47.2261 29.4138 47.1214C29.4358 47.0607 29.4413 47.0056 29.4248 46.9559C29.4083 46.9063 29.3808 46.8567 29.3313 46.8016C29.2817 46.7519 29.1992 46.6802 29.0671 46.592C28.9406 46.5038 28.825 46.4156 28.7149 46.3329C28.6049 46.2502 28.5168 46.1619 28.4508 46.0682C28.3847 45.9745 28.3407 45.8697 28.3242 45.7594C28.3077 45.6492 28.3242 45.5223 28.3737 45.3845C28.4673 45.1309 28.6269 44.9654 28.847 44.8882C29.0726 44.811 29.3423 44.8276 29.6615 44.9489C30.1237 45.1198 30.3879 45.401 30.4649 45.787L29.9311 45.9579C29.8981 45.8201 29.8486 45.7043 29.777 45.6216C29.7055 45.5389 29.6064 45.4727 29.4799 45.4286C29.3533 45.3845 29.2432 45.3679 29.1497 45.3845C29.0561 45.401 28.9901 45.4562 28.9516 45.5554C28.9185 45.6436 28.9351 45.7208 29.0011 45.798C29.0671 45.8752 29.1937 45.9745 29.3808 46.0958C29.4854 46.1675 29.5844 46.2391 29.678 46.3163C29.777 46.3935 29.8541 46.4762 29.9201 46.57C29.9861 46.6637 30.0247 46.7685 30.0412 46.8843C30.0632 47.0001 30.0467 47.1379 29.9861 47.2923Z" fill="#E9D59A"/>
<path d="M32.7597 46.4042C32.6497 46.2001 32.4405 46.0458 32.1379 45.9355L31.1363 45.5605L30.1458 48.2292L30.6906 48.4332L30.9987 47.6062L31.439 47.7716C31.7802 47.8984 32.0498 47.9094 32.2589 47.8102C32.4681 47.7109 32.6331 47.5014 32.7487 47.1761C32.8698 46.8673 32.8753 46.6082 32.7597 46.4042ZM32.1929 46.9776C32.1434 47.1044 32.0938 47.1982 32.0388 47.2478C31.9838 47.3029 31.9122 47.3305 31.8242 47.3305C31.7361 47.3305 31.5931 47.2919 31.395 47.2202L31.1748 47.1375L31.5105 46.2387L31.7802 46.338C31.9948 46.4207 32.1324 46.5089 32.1929 46.6082C32.2479 46.7019 32.2479 46.8287 32.1929 46.9776Z" fill="#E9D59A"/>
<path d="M35.3074 47.4631C35.2139 47.1543 34.9663 46.9228 34.57 46.7739C34.1738 46.625 33.8436 46.6415 33.5685 46.8125C33.2933 46.9834 33.0732 47.2922 32.9081 47.7388C32.743 48.1799 32.71 48.5549 32.8035 48.8691C32.8971 49.1834 33.1447 49.4095 33.5355 49.5584C33.9097 49.6962 34.2343 49.6907 34.515 49.5308C34.7957 49.3709 35.0213 49.0621 35.1974 48.599C35.368 48.1523 35.401 47.7774 35.3074 47.4631ZM34.6416 48.3839C34.526 48.6982 34.3939 48.9133 34.2509 49.0235C34.1078 49.1338 33.9317 49.1504 33.7171 49.0732C33.5079 48.996 33.3814 48.8636 33.3483 48.6872C33.3098 48.5107 33.3538 48.2626 33.4694 47.9483C33.585 47.634 33.7171 47.419 33.8601 47.3087C34.0032 47.1984 34.1793 47.1819 34.3939 47.2591C34.6085 47.3363 34.7296 47.4686 34.7681 47.6451C34.8012 47.8215 34.7571 48.0696 34.6416 48.3839Z" fill="#E9D59A"/>
<path d="M37.8006 48.2513C37.6851 48.0693 37.4595 47.9149 37.1183 47.7881L36.1497 47.4297L35.1592 50.0984L35.704 50.3024L36.0782 49.2934L36.3533 49.3981L36.656 50.6608L37.2779 50.8924L36.9642 49.5525C37.1513 49.5801 37.3219 49.547 37.465 49.4478C37.608 49.3485 37.7236 49.1831 37.8116 48.957C37.9162 48.6703 37.9162 48.4387 37.8006 48.2513ZM37.2558 48.7696C37.2173 48.8743 37.1733 48.9405 37.1293 48.9791C37.0797 49.0177 37.0192 49.0342 36.9477 49.0342C36.8761 49.0342 36.7771 49.0122 36.656 48.9625L36.2598 48.8137L36.5239 48.1024L36.9477 48.2568C37.1073 48.3174 37.2118 48.3781 37.2613 48.4553C37.3054 48.5269 37.3054 48.6317 37.2558 48.7696Z" fill="#E9D59A"/>
<path d="M39.5397 49.255L38.7362 51.4275L38.1914 51.229L39.0004 49.0565L38.1804 48.7477L38.362 48.2515L40.5467 49.0675L40.3596 49.5638L39.5397 49.255Z" fill="#E9D59A"/>
<path opacity="0.9" d="M28.9957 53.2085C28.8416 53.6331 28.3684 53.8482 27.9446 53.6882C27.5209 53.5283 27.3063 53.0597 27.4659 52.6351C27.6254 52.2105 28.0932 51.9955 28.5169 52.1554C28.9407 52.3153 29.1553 52.7895 28.9957 53.2085Z" fill="#E9D59A"/>
<path d="M27.7629 54.2008C27.2071 53.9968 26.8769 53.462 26.8824 52.9051L24.9288 52.1772L24.3235 53.8094L30.6245 56.1527L31.2299 54.5206L29.2763 53.7928C28.9131 54.2229 28.3132 54.4048 27.7629 54.2008Z" fill="#E9D59A"/>
<path d="M25.8478 49.6963L25.2424 51.3284L27.196 52.0562C27.5537 51.6261 28.1536 51.4442 28.7039 51.6482C29.2597 51.8522 29.5899 52.3815 29.5844 52.944L31.538 53.6718L32.1433 52.0397L25.8478 49.6963Z" fill="#E9D59A"/>
<path d="M45.3343 28.2475L45.3398 28.242C45.3288 28.2144 45.1527 27.6961 45.1417 27.6685L45.1362 27.674C43.1 22.287 36.9421 19.9988 31.8957 22.7447L31.8902 22.7391C31.8627 22.7557 31.395 23.0314 31.3675 23.0479L31.373 23.0534C27.4658 25.4961 25.6773 30.3703 27.064 34.7594H27.0585C27.0695 34.7869 27.2456 35.2997 27.2566 35.3328L27.2622 35.3273C29.1937 40.6537 35.5718 42.964 40.442 40.2346L40.4475 40.2401C40.4751 40.2236 41.0034 39.9148 40.9703 39.9369V39.9314C44.883 37.5108 46.699 32.6586 45.3343 28.2475ZM44.6739 34.3183L41.2895 33.0611C41.7188 31.7819 41.8563 30.4641 41.8233 29.2124C42.8194 29.1352 43.876 28.8926 44.7785 28.5066C45.3618 30.4365 45.3013 32.4546 44.6739 34.3183ZM44.5859 27.9222C43.6723 28.3137 42.7203 28.5287 41.7958 28.6004C41.6307 26.3617 40.9538 24.3768 40.4585 23.1802C42.4231 24.2224 43.8429 25.9427 44.5859 27.9222ZM35.8029 31.6551L34.7959 34.3679C33.6567 33.9764 32.4406 33.7669 31.1859 33.7834C31.1418 32.5814 31.2629 31.3242 31.6701 30.1112L35.8029 31.6551ZM31.8737 29.5488C32.3525 28.3909 33.0569 27.3763 33.8548 26.5051C34.7408 27.2936 35.7919 27.9608 36.9916 28.446L36.0065 31.0926L31.8737 29.5488ZM36.3643 31.8701L40.5026 33.4085C40.0183 34.5884 39.2919 35.6195 38.4719 36.5017C37.5914 35.7188 36.5514 35.0626 35.3572 34.5774L36.3643 31.8701ZM36.5789 31.3022L37.5584 28.6555C38.7801 29.0746 40.0183 29.2565 41.196 29.24C41.2345 30.4255 41.1079 31.6551 40.7117 32.8461L36.5789 31.3022ZM41.1629 28.6335C40.0128 28.65 38.8682 28.4625 37.7675 28.0876L39.6716 22.9487C40.1339 23.9798 40.9703 26.1632 41.1629 28.6335ZM37.2062 27.8725C36.0671 27.4094 35.0985 26.7918 34.2841 26.064C36.0396 24.3216 38.0922 23.2188 39.1158 22.7336L37.2062 27.8725ZM38.3729 22.4083C37.2172 22.9873 35.4067 24.0514 33.8273 25.6339C33.1615 24.9667 32.5836 24.1727 32.1544 23.2905C34.0475 22.2539 36.2377 21.9121 38.3729 22.4083ZM31.6261 23.6048C32.0278 24.4264 32.6497 25.3086 33.4036 26.075C32.5561 27.0014 31.8077 28.0821 31.2959 29.3392L27.9115 28.0821C28.6819 26.1963 29.9752 24.6525 31.6261 23.6048ZM27.7024 28.639L31.0868 29.9016C30.6521 31.2029 30.5145 32.5428 30.5585 33.8165C29.579 33.8937 28.5279 34.1253 27.6199 34.5057C27.009 32.5262 27.0861 30.4861 27.7024 28.639ZM27.8125 35.0792C28.6875 34.7153 29.6065 34.4892 30.5915 34.4175C30.7621 36.6286 31.4335 38.5915 31.9233 39.777C29.9642 38.7349 28.5554 37.0366 27.8125 35.0792ZM31.2189 34.3899C32.3525 34.3789 33.4641 34.5554 34.5813 34.9358L32.6992 40.0086C32.2479 38.983 31.4225 36.8326 31.2189 34.3899ZM35.1481 35.1453C36.2707 35.603 37.2337 36.215 38.0482 36.9318C36.3037 38.6466 34.2731 39.7384 33.266 40.2181L35.1481 35.1453ZM34.0089 40.5544C35.1481 39.981 36.9366 38.9334 38.5105 37.3729C39.1818 38.0511 39.7486 38.8176 40.1834 39.6943C38.2793 40.7143 36.1111 41.0341 34.0089 40.5544ZM40.7062 39.38C40.2935 38.5529 39.6881 37.6927 38.9287 36.9318C39.7927 35.9945 40.5576 34.8972 41.0804 33.6235L44.4648 34.8862C43.6999 36.7609 42.3956 38.3213 40.7062 39.38Z" fill="#E9D59A"/>
<defs>
<linearGradient id="paint0_linear" x1="34.6044" y1="1.62646" x2="34.6044" y2="72.0017" gradientUnits="userSpaceOnUse">
<stop stop-color="#6266EA"/>
<stop offset="1" stop-color="#1A205A"/>
</linearGradient>
</defs>
</svg>
